X:237
T:
R:polska
S:Från Gotlands fornsal.
O:Gotland
M:3/4
L:1/16
K:C
e4 e2ge edfd|dcec c2B2 A2G2|c2ec dcBA G4|
e4 e2ge edfd|c2e2 e2g2 geca|ageg gfed d2c2|
G2Bd d2c2 c4::G2c2 c2Bc dcBc|dgfg agfg egec|
G2c2 c2Bc dcBc|dgfg agfg egec|c2a2 a2g2 f2e2|
d2dc d2c2 B2A2|GAGF G2Bd f2d2|cBed d4 c4:|

